X:28
T:Tatter Jack
S:American Veteran Fifer, #28
C:Donated by Denman Duncan, Drummer Burkholder Post Drum Corps.
M:6/8
L:1/8
Q:1/8=300
K:D 
%%MIDI program 72
%%MIDI transpose 8
%%MIDI ratio 3 1
|: F | F>BB B2B | dcd fed | cAA eAA | ced cBA |
F>BB B2c | def b2a | fed cde | fef B2 :|
|: f/g/ | afg a2b | afg a2A | ABA cBA | ced cBA |
F>BB B2c | def b2a | fed cde | fef B2 :|


